icon/ir/cloud-download.svg

<svg stroke-width="1.5" viewBox="0 0 24 24" fill="none" xmlns="http://www.w3.org/2000/svg" height="1em" width="1em">
  <path d="M12 13V22M12 22L15.5 18.5M12 22L8.5 18.5" stroke="currentColor" stroke-linecap="round" stroke-linejoin="round"/>
  <path d="M20 17.6073C21.4937 17.0221 23 15.6889 23 13C23 9 19.6667 8 18 8C18 6 18 2 12 2C6 2 6 6 6 8C4.33333 8 1 9 1 13C1 15.6889 2.50628 17.0221 4 17.6073" stroke="currentColor" stroke-linecap="round" stroke-linejoin="round"/>
</svg>

<svg width="24" height="24" stroke-width="1.5" fill="none" xmlns="http://www.w3.org/2000/svg"><path d="M12 13v9m0 0 3.5-3.5M12 22l-3.5-3.5M20 17.607c1.494-.585 3-1.918 3-4.607 0-4-3.333-5-5-5 0-2 0-6-6-6S6 6 6 8c-1.667 0-5 1-5 5 0 2.689 1.506 4.022 3 4.607" stroke="currentColor" stroke-linecap="round" stroke-linejoin="round"/></svg>
